X: 1266
T: MacDonald's Farm
%R: air, march
B: "The Golden Book of Favorite Songs", 1923
S: https://ia802507.us.archive.org/33/items/goldenbookoffavo00beat_0/goldenbookoffavo00beat_0.pdf
Z: 2020 John Chambers <jc:trillian.mit.edu>
M: 2/4
L: 1/16
K: Bb
% - - - - - - - - - - - - - - - - - - - - - - - - - - - - -
[| B2B2 B2B2 | G2G2 F4 | d2d2 c2c2 | B6 F2 | B2B2 B2B2 | G2G2 F4 |
w: Old Mac-Don-ald had a farm, Ee-i, ee-i-o, And on this farm he had a duck
%
d2d2 c2c2 | B6 dc | B2B2 B2 BB | B2B2 B4 | BBB2 BBB2 |
w: Ee-i, ee-i-o, With a quack, quack here and a quack, quack here, Here a quack, there a quack
%
BBBB B2B2 | B2B2 B2B2 | G2G2 F4 | d2d2 c2c2 | B8 |]
w: Here and there a quack, quack, Old Mac-Don-ald had a farm, Ee-i, ee-i-o.
% - - - - - - - - - - - - - - - - - - - - - - - - - - - - -
%%begintext align
%% Continue indefinitely by using names and sounds of other animals.
%% Do not overlook the Ford, with its "rattle", as a necessary farm adjunct.
%%endtext
